X: 1404
T: Mâhur Sazsemâîsi
C: Nikolâki
O: Turkey
F: http://compmusic.upf.edu/node/140
N: mahur--sazsemaisi--aksaksemai----nikolaki
N: makam= mahur
N: form= sazsemaisi
N: usul= aksaksemai = 10/8
M: 10/8
L: 1/16
K: C ^9/8f   
Q: 1/4=144
%%MIDI tuningsystem comma53
g4 f2g4a2 gaba gfe2  | fgfe d2e2 d2e2 f2g4z2  | 
w:  1. HANE  |   | 
g2f2 g2a2 gab2 ac'b4g2  | a4 d'c'c'b baag gfg4z2  | 
w:   |   | 
efg2 f2g2 feag =fed4z2  | =f2e2 d2c3edc _1/4B^AB3cB=A  | 
w:  MÜLÂZİME  |   | 
G4 ^c2d4cd efag =fed=c  | B4 G2Ac BAG3/2F/ EFG4z2  | 
w:   |   | 
efg2 f2g2 feag =fed4z2  | =f2e2 d2c3edc _1/4B^AB3cB=A  | 
w:  MÜLÂZİME  |   | 
G4 ^c2d4cd efag =fed=c  | B4 G2Ac BAG3/2F/ EFG4z2  | 
w:   |   | 
G4 _1/4B^AB3cde dcB=A G2z2  | c4 d2e=f eddc _1/4B^AB4z2  | 
w:  2. HANE  |   | 
B2c2 d2e2 f2g2 a2b4ag  | a3b agfe d2e2 f2g4z2  | 
w:   |   | 
efg2 f2g2 feag =fed4z2  | =f2e2 d2c3edc _1/4B^AB3cB=A  | 
w:  MÜLÂZİME  |   | 
G4 ^c2d4cd efag =fed=c  | B4 G2Ac BAG3/2F/ EFG4z2  | 
w:   |   | 
efg2 f2g2 feag =fed4z2  | =f2e2 d2c3edc _1/4B^AB3cB=A  | 
w:  MÜLÂZİME  |   | 
G4 ^c2d4cd efag =fed=c  | B4 G2Ac BAG3/2F/ EFG4z2  | 
w:   |   | 
_1/4b4 ^a2b3g=af gedc BAG2  | G2_1/4B2 d2g3ab2 ac'b4z2  | 
w:  3. HANE  |   | 
c'4 c'bb3a^ga bga4z2  | a3b agf3eef edd4z2  | 
w:   |   | 
efg2 f2g2 feag =fed4z2  | =f2e2 d2c3edc _1/4B^AB3cB=A  | 
w:  MÜLÂZİME  |   | 
G4 ^c2d4cd efag =fed=c  | B4 G2Ac BAG3/2F/ EFG4z2  | 
w:   |   | 
efg2 f2g2 feag =fed4z2  | =f2e2 d2c3edc _1/4B^AB3cB=A  | 
w:  MÜLÂZİME  |   | 
G4 ^c2d4cd efag =fed=c  | B4 G2Ac BAG3/2F/ EFG4z2  | 
w:   |   | 
z12  | G4G2B4B2  | d4d2g6  | c'2b2a2g2f2e2  | \
w:  |  4. HANE  |   |   | 
d2e2d2c2B2A2  | G4G2B4B2  | 
w:   |   | 
d4d2g6  | c'2b2a2g2f2e2  | d2e2f2g4z2  | \
w:   |   |   | 
a2g2f2e2^d2f2  | e6d6  | 
w:   |   | 
e4e2e2d2c2  | d4d2d2c2B2  | a2g2f2e2^d2f2  | \
w:   |   |   | 
e6d6  | e2d2e2f2e2f2  | 
w:   |   | 
g6g4z2  | z20  | efg2 f2g2 feag =fed4z2  | \
w:   |  |  MÜLÂZİME  | 
=f2e2 d2c3edc _1/4B^AB3cB=A  | 
w:   | 
G4 ^c2d4cd efag =fed=c  | B4 G2Ac BAG3/2F/ EFG4z2  | 
w:   |   | 
efg2 f2g2 feag =fed4z2  | =f2e2 d2c3edc _1/4B^AB3cB=A  | 
w:  MÜLÂZİME  |   | 
G4 ^c2d4cd efag =fed=c  | B4 G2Ac BAG3/2F/ EFG4z2  | 
w:   |   | 
|


